X: 51
T:Lads of Duns
M:6/8
L:1/8
K:D
B|"D"A2D DED|"D"DED "G"B2 A|"G"Bcd "D"AFA|"Em"BGE E2 B|"D"A2D DED|"D"DED
 B2 A|!
"G"Bcd "A7"AFd|"D"AFD D2:||:g|"D"fef "D"d2e|"D"fga "G"B2 A|"G"Bcd AFA|"E
m"BGE E2 g|!
"D"fef d2e|"D"fga "G"B2 A|"G"Bcd "A7"AFd|"D"AFD D2 g|"D"fef d2e|"D"fga "
G"B2 A|!
"G"Bcd AFA|"Em"BGE E2 f/g/|"F#m"afa "Em"geg|"D"fdf "A"ece|"G"dcB "A7"AFd
|"D"AFD D2||
